X: 1
T: Gan Ainm
M: 12/8
L: 1/8
R: slide
K: Dmaj
DEF DEF DEF FED | EFG GFE EFG AFE |
DEF DEF DEF FED | EFG ABA GFE D3 :|
dcd AFA dcd BGB | dcd AFA GEB AFD |
dcd AFA dcd BGB | dcd AFA GFE D3 :|
